assets/svgs/sg-1000.svg

<?xml version="1.0" encoding="UTF-8" standalone="no"?>
<svg
   xmlns:dc="http://purl.org/dc/elements/1.1/"
   xmlns:cc="http://creativecommons.org/ns#"
   xmlns:rdf="http://www.w3.org/1999/02/22-rdf-syntax-ns#"
   xmlns:svg="http://www.w3.org/2000/svg"
   xmlns="http://www.w3.org/2000/svg"
   xmlns:sodipodi="http://sodipodi.sourceforge.net/DTD/sodipodi-0.dtd"
   xmlns:inkscape="http://www.inkscape.org/namespaces/inkscape"
   version="1.1"
   id="svg18"
   sodipodi:docname="sg-1000.svg"
   width="264"
   height="38.000038"
   inkscape:version="0.92.5 (2060ec1f9f, 2020-04-08)">
  <metadata
     id="metadata24">
    <rdf:RDF>
      <cc:Work
         rdf:about="">
        <dc:format>image/svg+xml</dc:format>
        <dc:type
           rdf:resource="http://purl.org/dc/dcmitype/StillImage" />
      </cc:Work>
    </rdf:RDF>
  </metadata>
  <defs
     id="defs22" />
  <sodipodi:namedview
     pagecolor="#ffffff"
     bordercolor="#666666"
     borderopacity="1"
     objecttolerance="10"
     gridtolerance="10"
     guidetolerance="10"
     inkscape:pageopacity="0"
     inkscape:pageshadow="2"
     inkscape:window-width="640"
     inkscape:window-height="480"
     id="namedview20"
     showgrid="false"
     inkscape:zoom="2.36"
     inkscape:cx="50"
     inkscape:cy="-11.999963"
     inkscape:window-x="72"
     inkscape:window-y="27"
     inkscape:window-maximized="0"
     inkscape:current-layer="svg18" />
  <g
     transform="scale(0.44,0.441025)"
     id="g16">
    <path
       d="m 80.217,68.958 c 0,5.145 -1.56,9.297 -4.68,12.462 -3.123,3.162 -7.338,4.743 -12.651,4.743 H 1.395 V 68.958 H 62.886 V 51.75 H 17.082 C 12.021,51.75 7.908,50.148 4.746,46.941 1.581,43.737 0,39.603 0,34.542 V 17.205 C 0,14.76 0.465,12.483 1.392,10.377 2.319,8.268 3.564,6.453 5.124,4.935 6.684,3.417 8.496,2.214 10.563,1.329 12.633,0.444 14.805,0 17.082,0 H 74.4 V 17.205 H 17.082 v 17.337 h 45.804 c 2.445,0 4.722,0.444 6.831,1.329 2.109,0.885 3.945,2.088 5.505,3.606 1.56,1.518 2.781,3.33 3.669,5.439 0.885,2.109 1.326,4.389 1.326,6.834 z"
       style="fill:#ffffff"
       id="path2"
       inkscape:connector-curvature="0" />
    <path
       d="M 180.18,86.163 H 111.225 C 99.75,86.163 94.014,80.43 94.014,68.958 V 17.205 c 0,-2.445 0.465,-4.722 1.392,-6.828 0.927,-2.109 2.172,-3.924 3.735,-5.442 1.56,-1.518 3.375,-2.721 5.439,-3.606 C 106.647,0.444 108.861,0 111.225,0 h 66.045 v 17.205 h -66.045 v 51.753 h 51.621 V 51.75 h -34.29 V 34.542 h 51.624 z"
       style="fill:#ffffff"
       id="path4"
       inkscape:connector-curvature="0" />
    <path
       d="M 244.917,51.75 H 193.293 V 34.542 h 51.624 z"
       style="fill:#ffffff"
       id="path6"
       inkscape:connector-curvature="0" />
    <path
       d="M 304.848,86.163 H 253.224 V 68.958 h 17.331 V 17.205 H 253.224 V 0 h 34.542 v 68.958 h 17.082 z"
       style="fill:#ffffff"
       id="path8"
       inkscape:connector-curvature="0" />
    <path
       d="m 333.471,0 c -2.277,0 -4.443,0.441 -6.51,1.326 -2.067,0.885 -3.879,2.088 -5.439,3.606 -1.56,1.518 -2.805,3.33 -3.735,5.439 -0.927,2.109 -1.392,4.386 -1.392,6.831 v 51.756 c 0,11.472 5.691,17.205 17.076,17.205 h 51.63 c 11.469,0 17.202,-5.733 17.202,-17.205 V 17.202 c 0,-2.358 -0.441,-4.587 -1.326,-6.696 C 400.092,8.4 398.874,6.561 397.314,5.001 395.754,3.438 393.915,2.211 391.806,1.326 389.697,0.441 387.462,0 385.101,0 Z m 0,17.202 h 51.63 v 51.756 h -51.63 z"
       style="fill:#ffffff"
       id="path10"
       inkscape:connector-curvature="0" />
    <path
       d="m 432.324,0 c -2.277,0 -4.443,0.441 -6.51,1.326 -2.067,0.885 -3.879,2.088 -5.439,3.606 -1.56,1.518 -2.805,3.33 -3.735,5.439 -0.927,2.109 -1.392,4.386 -1.392,6.831 v 51.756 c 0,11.472 5.691,17.205 17.076,17.205 h 51.63 c 11.469,0 17.202,-5.733 17.202,-17.205 V 17.202 c 0,-2.358 -0.438,-4.587 -1.326,-6.696 C 498.945,8.4 497.715,6.561 496.158,5.001 494.595,3.438 492.759,2.211 490.65,1.326 488.541,0.441 486.315,0 483.954,0 Z m 0,17.202 h 51.63 v 51.756 h -51.63 z"
       style="fill:#ffffff"
       id="path12"
       inkscape:connector-curvature="0" />
    <path
       d="m 531.177,0 c -2.274,0 -4.452,0.441 -6.522,1.326 -2.067,0.885 -3.876,2.088 -5.436,3.606 -1.56,1.518 -2.805,3.33 -3.735,5.439 -0.927,2.109 -1.392,4.386 -1.392,6.831 v 51.756 c 0,11.472 5.7,17.205 17.085,17.205 h 51.621 C 594.267,86.163 600,80.43 600,68.958 V 17.202 c 0,-2.358 -0.441,-4.587 -1.326,-6.696 C 597.789,8.4 596.571,6.561 595.011,5.001 593.451,3.438 591.612,2.211 589.503,1.326 587.394,0.441 585.156,0 582.798,0 Z m 0,17.202 h 51.621 v 51.756 h -51.621 z"
       style="fill:#ffffff"
       id="path14"
       inkscape:connector-curvature="0" />
  </g>
</svg>

<?xml version="1.0" encoding="utf-8"?>
<svg version="1.1" viewBox="0 0 264 38" xmlns="http://www.w3.org/2000/svg">
  <g transform="matrix(0.44, 0, 0, 0.441025, 0, 0)">
    <path d="M 80.217 68.958 C 80.217 74.103 78.657 78.255 75.537 81.42 C 72.414 84.582 68.199 86.163 62.886 86.163 L 1.395 86.163 L 1.395 68.958 L 62.886 68.958 L 62.886 51.75 L 17.082 51.75 C 12.021 51.75 7.908 50.148 4.746 46.941 C 1.581 43.737 0 39.603 0 34.542 L 0 17.205 C 0 14.76 0.465 12.483 1.392 10.377 C 2.319 8.268 3.564 6.453 5.124 4.935 C 6.684 3.417 8.496 2.214 10.563 1.329 C 12.633 0.444 14.805 0 17.082 0 L 74.4 0 L 74.4 17.205 L 17.082 17.205 L 17.082 34.542 L 62.886 34.542 C 65.331 34.542 67.608 34.986 69.717 35.871 C 71.826 36.756 73.662 37.959 75.222 39.477 C 76.782 40.995 78.003 42.807 78.891 44.916 C 79.776 47.025 80.217 49.305 80.217 51.75 Z" style="fill: rgb(255, 255, 255);"/>
    <path d="M 180.18 86.163 L 111.225 86.163 C 99.75 86.163 94.014 80.43 94.014 68.958 L 94.014 17.205 C 94.014 14.76 94.479 12.483 95.406 10.377 C 96.333 8.268 97.578 6.453 99.141 4.935 C 100.701 3.417 102.516 2.214 104.58 1.329 C 106.647 0.444 108.861 0 111.225 0 L 177.27 0 L 177.27 17.205 L 111.225 17.205 L 111.225 68.958 L 162.846 68.958 L 162.846 51.75 L 128.556 51.75 L 128.556 34.542 L 180.18 34.542 Z" style="fill: rgb(255, 255, 255);"/>
    <path d="M 244.917 51.75 L 193.293 51.75 L 193.293 34.542 L 244.917 34.542 Z" style="fill: rgb(255, 255, 255);"/>
    <path d="M 304.848 86.163 L 253.224 86.163 L 253.224 68.958 L 270.555 68.958 L 270.555 17.205 L 253.224 17.205 L 253.224 0 L 287.766 0 L 287.766 68.958 L 304.848 68.958 Z" style="fill: rgb(255, 255, 255);"/>
    <path d="M 333.471 0 C 331.194 0 329.028 0.441 326.961 1.326 C 324.894 2.211 323.082 3.414 321.522 4.932 C 319.962 6.45 318.717 8.262 317.787 10.371 C 316.86 12.48 316.395 14.757 316.395 17.202 L 316.395 68.958 C 316.395 80.43 322.086 86.163 333.471 86.163 L 385.101 86.163 C 396.57 86.163 402.303 80.43 402.303 68.958 L 402.303 17.202 C 402.303 14.844 401.862 12.615 400.977 10.506 C 400.092 8.4 398.874 6.561 397.314 5.001 C 395.754 3.438 393.915 2.211 391.806 1.326 C 389.697 0.441 387.462 0 385.101 0 L 333.471 0 Z M 333.471 17.202 L 385.101 17.202 L 385.101 68.958 L 333.471 68.958 L 333.471 17.202 Z" style="fill: rgb(255, 255, 255);"/>
    <path d="M 432.324 0 C 430.047 0 427.881 0.441 425.814 1.326 C 423.747 2.211 421.935 3.414 420.375 4.932 C 418.815 6.45 417.57 8.262 416.64 10.371 C 415.713 12.48 415.248 14.757 415.248 17.202 L 415.248 68.958 C 415.248 80.43 420.939 86.163 432.324 86.163 L 483.954 86.163 C 495.423 86.163 501.156 80.43 501.156 68.958 L 501.156 17.202 C 501.156 14.844 500.718 12.615 499.83 10.506 C 498.945 8.4 497.715 6.561 496.158 5.001 C 494.595 3.438 492.759 2.211 490.65 1.326 C 488.541 0.441 486.315 0 483.954 0 L 432.324 0 Z M 432.324 17.202 L 483.954 17.202 L 483.954 68.958 L 432.324 68.958 L 432.324 17.202 Z" style="fill: rgb(255, 255, 255);"/>
    <path d="M 531.177 0 C 528.903 0 526.725 0.441 524.655 1.326 C 522.588 2.211 520.779 3.414 519.219 4.932 C 517.659 6.45 516.414 8.262 515.484 10.371 C 514.557 12.48 514.092 14.757 514.092 17.202 L 514.092 68.958 C 514.092 80.43 519.792 86.163 531.177 86.163 L 582.798 86.163 C 594.267 86.163 600 80.43 600 68.958 L 600 17.202 C 600 14.844 599.559 12.615 598.674 10.506 C 597.789 8.4 596.571 6.561 595.011 5.001 C 593.451 3.438 591.612 2.211 589.503 1.326 C 587.394 0.441 585.156 0 582.798 0 L 531.177 0 Z M 531.177 17.202 L 582.798 17.202 L 582.798 68.958 L 531.177 68.958 L 531.177 17.202 Z" style="fill: rgb(255, 255, 255);"/>
  </g>
</svg>
